!!!!SEGMENT: pl-kk--kk-i-498_anonim--pange-lingua.krn
!!!cenid: 18xx:1339
!!!COM: Anonim
!!!COM-rismID: pe30004985
!!!CDT:
!!!CNT:
!!!OTL: Pange lingua
!!!PDT:
!!!AGN: Sacred
!!!SMS-siglum: PL-Kk
!!!SMS-shelfmark: Kk.I.498
!!!SMS-shelfwork: W
!!!SMS-variant:
!!!SMS-altvar:
!!!NIFC-rismSourceID: 1001137128
!!!NIFC-rismChildID: 1001137128
!!!NIFC-islandoraID: pl-kk:14635
!!!URL-pdf-islandora: https://repozytorium.nifc.pl/islandora/object/pl-kk%3A14635/datastream/PDF/view
!!!URL-scan: https://polish.musicsources.pl/pl/lokalizacje/galeria/rekopisy/6106 @EN{Scan on Polish Music Sources Website} @PL{Skany w portalu Dziedzictwo Muzyki Polskiej w otwartym dostępie}
!!!IIIF:
!!!ONB-nifc:
!!!AIN: 1 alto 1 empty 1 soprn 1 tenor
!!!key:
**kern	**text	**kern	**text	**kern	**text	**kern	**text
*part4	*part4	*part3	*part3	*part2	*part2	*part1	*part1
*staff4	*staff4	*staff3	*staff3	*staff2	*staff2	*staff1	*staff1
*Iempty	*	*Itenor	*	*Ialto	*	*Isoprn	*
*I"Bas.	*	*I"Tenor.	*	*I"Alt.	*	*I"Sopran.	*
*I'B	*	*I'T	*	*I'A	*	*I'S	*
*group1	*	*group1	*	*group1	*	*group1	*
*clefF4	*	*clefC4	*	*clefC3	*	*clefC1	*
*k[]	*	*k[]	*	*k[]	*	*k[]	*
*C:	*	*C:	*	*C:	*	*C:	*
*M3/4	*	*M3/4	*	*M3/4	*	*M3/4	*
=1	=1	=1	=1	=1	=1	=1	=1
*2\right	*	*2\right	*	*2\right	*	*2\right	*
!LO:TX:a:t=Adagio	!	!LO:TX:a:t=adagio	!	!LO:TX:a:t=Adagio	!	!LO:TX:a:t=Adagio	!
2C/	Pan-	2G/	Pan-	2e\	Pan-	2cc\	Pan-
!LO:TX:t=P:problem=8\right&colon; global	!	!LO:TX:t=P:problem=4\right&colon; global	!	!LO:TX:t=P:problem=8\right&colon; global	!	!LO:TX:t=P:problem=8\right&colon; global	!
(8E\L	-ge	4c\	-ge	(8g\L	-ge	8g\L	-ge
8F\J)	.	.	.	8f\J)	.	8a\J	.
=2	=2	=2	=2	=2	=2	=2	=2
!LO:TX:t=P:problem=4\right&colon; global	!	!	!	!LO:TX:t=P:problem=4\right&colon; global	!	!LO:TX:t=P:problem=4\right&colon; global	!
(4G\	lin-	(4c\	lin-	(4e\	lin-	(4g\	lin-
4G#X\)	.	4B\)	.	4d\)	.	4f\)	.
4A\	-gua	4c\	-gua	4c\	-gua	4e/	-gua
=3	=3	=3	=3	=3	=3	=3	=3
(4F\	glo-	2d\	glo-	(4f\	glo-	(4a\	glo-
8D\L	.	.	.	4a\)	.	8ff\L	.
8F\J)	.	.	.	.	.	8dd\J)	.
!LO:TX:t=P:problem=mixed beam	!	!LO:TX:t=P:problem=8\right&colon; global	!	!	!	!	!
8A\L	-ri-	(8e\L	-ri-	4g\	-ri-	(8cc\L	-ri-
8GG/J	.	8d\J)	.	.	.	8b\J)	.
=4	=4	=4	=4	=4	=4	=4	=4
!	!	!	!	!LO:TX:t=P:problem=16\right&colon; global	!	!LO:TX:t=P:problem=16\right&colon; global	!
4C/	-o-	4G/	-o-	(16f\LL	-o-	(16dd\LL	-o-
.	.	.	.	16e\	.	16cc\	.
.	.	.	.	16d\	.	16b\	.
.	.	.	.	16e\JJ)	.	16cc\JJ)	.
4C/	-si	4G/	-si	4e\	-si	4cc\	-si
4r	.	4r	.	4r	.	4r	.
=5	=5	=5	=5	=5	=5	=5	=5
2C\	co-	2c\	co-	2g\	cor-	2ee\	cor-
(8E\L	-rpo-	4c\	-rpo-	4g\	-po-	(8cc\L	-po-
8C\J)	.	.	.	.	.	8ee\J)	.
=6	=6	=6	=6	=6	=6	=6	=6
2G\	-ris	2B\	-ris	2g\	-ris	2dd\	-ris
4G\	my-	(8d\L	my-	4g\	my-	(8b\L	my-
.	.	8B\J)	.	.	.	8dd\J)	.
!LO:LB:g=original	!	!LO:LB:g=original	!	!LO:LB:g=original	!	!LO:LB:g=original	!
=7	=7	=7	=7	=7	=7	=7	=7
(4C\	-ste-	(4A\	-ste-	(4e\	-ste-	(4cc\	-ste-
4D\)	.	8G\L	.	4g\)	.	4b\)	.
.	.	8d\J)	.	.	.	.	.
4D\	-ri-	4c\	-ri-	4f#X\	-ri-	4a\	-ri-
=8	=8	=8	=8	=8	=8	=8	=8
2G\	-um	2B\	-um	2g\	-um	2g\	-um
4r	.	4r	.	4r	.	4r	.
=9	=9	=9	=9	=9	=9	=9	=9
2C/	san-	2G/	san-	2e\	san-	2cc\	san-
4E\	-gui-	4c\	-gui-	4g\	-gui-	4b-X\	-qui-
=10	=10	=10	=10	=10	=10	=10	=10
4F\	-nis-	4c\	-nis-	4g\	-nis-	4b-X\	-nis-
4F\	-que	4c\	-que	4f\	-que	4a\	-que
4r	.	4r	.	4r	.	4r	.
=11	=11	=11	=11	=11	=11	=11	=11
(4.D\	pre-	(4.d\	pre-	2a\	pre-	(4.ff\	pre-
8E\L	.	8c#X\L	.	.	.	8ee\L	.
8F\J)	.	8d\J)	.	4a\	-ti-	8dd\J)	.
8F#X\	-ti-	8d#X\	-ti-	.	.	8cc\	-ti-
=12	=12	=12	=12	=12	=12	=12	=12
4G\	-o-	4e\	-o-	4g\	-o-	4cc\	-o-
4GG/	-si	4d\	-si	4g\	-si	4bn\	-si
4r	.	4r	.	4r	.	4r	.
!LO:LB:g=original	!	!LO:LB:g=original	!	!LO:LB:g=original	!	!LO:LB:g=original	!
=13	=13	=13	=13	=13	=13	=13	=13
2G\	quem	2B\	quem	2d\	quem	2g\	quem
4Fn\	inn-	4B\	in	4g\	in	(8g\L	in
.	.	.	.	.	.	16b\L	.
.	.	.	.	.	.	16dd\JJ)	.
=14	=14	=14	=14	=14	=14	=14	=14
(4D\	mun-	2B\	mun-	2g\	mun-	(4ff\	mun-
4F\)	.	.	.	.	.	4dd\)	.
4E\	-di	4c\	-di	4g\	-di	4ee\	-di
=15	=15	=15	=15	=15	=15	=15	=15
(8F\L	pre-	(8A\L	pre-	(4a\	pre-	(8dd\L	pre-
!LO:TX:t=P:problem=16\right&colon; global	!	!	!	!	!	!	!
16D\L	.	8d\J	.	.	.	16ff\L	.
16F\JJ	.	.	.	.	.	16dd\JJ	.
4.G\)	.	4e\	.	4.g\)	.	4cc\	.
.	.	8d\)	.	.	.	8b\)	.
8GG/	-ti-	8d\	-ti-	8f\	-ti-	8b\	-ti-
=16	=16	=16	=16	=16	=16	=16	=16
2C/	-um	2G/	-um	2e\	-um	2cc\	-um
4r	.	4r	.	4r	.	4r	.
=17	=17	=17	=17	=17	=17	=17	=17
(4E\	fru-	2c\	fru-	2g\	fru-	(4.cc\	fru-
4C\)	.	.	.	.	.	.	.
.	.	.	.	.	.	8ee\	.
4E\	-ctus	4c\	-ctus	4g\	-ctus	8gg\)	.
.	.	.	.	.	.	8b-X\	-ctus
=18	=18	=18	=18	=18	=18	=18	=18
4E\	ven-	4c\	ven-	4g\	ven-	4b-X\	ven-
4F\	-tris	4c\	-tris	4f\	-tris	4a\	-tris
4r	.	4r	.	4r	.	4r	.
!LO:LB:g=original	!	!	!	!	!	!LO:LB:g=original	!
=19	=19	=19	=19	=19	=19	=19	=19
!LO:TX:t=P:problem=nuty pokreślone	!	!	!	!	!	!	!
(4.F\	ge-	(4.d\	ge-	2a\	ge-	(8a\L	ge-
.	.	.	.	.	.	8dd\J	.
.	.	.	.	.	.	8ff\L	.
8E\L	.	8c#X\L	.	.	.	8ee\J	.
8F\J)	.	8d\J)	.	4a\	-ne-	8dd\)	.
8F#X\	-ne-	8d#X\	-ne-	.	.	8cc\	-ne-
!	!	!LO:LB:g=original	!	!	!	!	!
=20	=20	=20	=20	=20	=20	=20	=20
4G\	-ro-	4e\	-ro-	4g\	-ro-	4cc\	-ro-
4GG/	-si	4d\	-si	4g\	-si	4bn\	-si
4r	.	4r	.	4r	.	4r	.
!	!	!	!	!LO:LB:g=original	!	!	!
=21	=21	=21	=21	=21	=21	=21	=21
2G\	Rex	2B\	Rex	2g\	Rex	2ff\	Rex
4G\	ef-	(8c\L	ef-	4g\	ef-	(8ee\L	ef-
.	.	8B\J)	.	.	.	8ff\J)	.
=22	=22	=22	=22	=22	=22	=22	=22
2G\	-fu-	(4c\	-fu-	(4g\	-fu-	(4ee\	-fu-
.	.	4B\)	.	4f\)	.	4dd\)	.
4C/	-dit	4c\	-dit	4e\	-dit	4cc\	-dit
=23	=23	=23	=23	=23	=23	=23	=23
(8F\L	gen-	(8A\L	gen-	(4a\	gen-	(8dd\L	gen-
16D\L	.	8d\J	.	.	.	16ff\L	.
16F\JJ	.	.	.	.	.	16dd\JJ	.
4.G\)	.	4e\	.	4.g\)	.	4cc\	.
.	.	8d\)	.	.	.	8b\)	.
8G#X\	-ti-	8d\	-ti-	8f\	-ti-	8b\	-ti-
=24	=24	=24	=24	=24	=24	=24	=24
2A\	-um	2c\	-um	2e\	-um	2cc\	-um
4r	.	4r	.	4r	.	4r	.
!LO:LB:g=original	!	!	!	!	!	!LO:LB:g=original	!
=25	=25	=25	=25	=25	=25	=25	=25
2D\	Rex	2d\	Rex	2a\	Rex	2ff\	Rex
(8Gn\L	ef-	(8c#X\L	ef-	4a\	ef-	(8ee\L	ef-
8F\J)	.	8d\J)	.	.	.	8ff\J)	.
!	!	!LO:LB:g=original	!	!	!	!	!
=26	=26	=26	=26	=26	=26	=26	=26
(4G\	-fu-	(4cn\	-fu-	(4g\	-fu-	(4ee\	-fu-
4G#X\)	.	4B\)	.	4f\)	.	4dd\)	.
4A\	-dit	4c\	-dit	4e\	-dit	4cc\	-dit
=27	=27	=27	=27	=27	=27	=27	=27
(8F\L	gen-	(8A\L	gen-	(4a\	gen-	(8dd\L	gen-
16D\L	.	8d\J	.	.	.	16ff\L	.
16F\JJ	.	.	.	.	.	16dd\JJ	.
4.G\)	.	4e\	.	4.g\)	.	4cc\	.
.	.	8d\)	.	.	.	8b\)	.
8GG/	-ti-	8d\	-ti-	8f\	-ti-	8b\	-ti-
=28	=28	=28	=28	=28	=28	=28	=28
2C/	-um	2G/	-um	2e\	-um	2cc\	-um
4r	.	4r	.	4r	.	4r	.
!!LO:LB:g=original
=29||	=29||	=29||	=29||	=29||	=29||	=29||	=29||
*M3/4	*	*M3/4	*	*M3/4	*	*M3/4	*
!	!	!LO:TX:a:t=4.	!	!	!	!	!
!	!	!LO:N:vis=00	!	!	!	!	!
2C/	Tan-	0.r	.	2e\	Tan-	2e/	Tan-
4C/	-tum	.	.	4e\	-tum	4e/	-tum
=30	=30	=30	=30	=30	=30	=30	=30
(4D/	er-	.	.	(4f\	e-	(4f/	er-
4C/)	.	.	.	4e\)	.	4e/)	.
4BB/	-go	.	.	4d\	-rgo	4d/	-go
=31	=31	=31	=31	=31	=31	=31	=31
4.E\	sa-	.	.	4.g\	sa-	4.g\	sa-
8E\	-cra-	.	.	8c\	-cra-	8g\	-cra-
8F\L	-men-	.	.	(8c\L	-men-	(8a\L	-men-
8D\J	.	.	.	8f\J)	.	8b\J)	.
=32	=32	=32	=32	=32	=32	=32	=32
2.C/	-tum	.	.	2.e\	-tum	2.cc\	-tum
=33	=33	=33	=33	=33	=33	=33	=33
(4C\	ve-	2c\	ve-	2g\	ve-	(4ee\	ve-
4E\)	.	.	.	.	.	4cc\)	.
4C/	-ne-	4c\	-ne-	4g\	-ne-	4ee\	-ne-
=34	=34	=34	=34	=34	=34	=34	=34
(4G\	-re-	(4B\	-re-	(4g\	-re-	(4dd\	-re-
4D#X\)	.	4A\)	.	4f#X\)	.	4cc\)	.
4E\	-mur	4G/	-mur	4g\	-mur	4b\	-mur
!LO:LB:g=original	!	!	!	!	!	!LO:LB:g=original	!
=35	=35	=35	=35	=35	=35	=35	=35
(4C\	ce-	(4A\	ce-	(4e\	ce-	(4cc\	ce-
4D\)	.	8G\L	.	4g\)	.	4b\)	.
.	.	8d\J)	.	.	.	.	.
4D\	-rnu-	4d\	-rnu-	4f#X\	-rnu-	4a\	-rnu-
!	!	!	!	!LO:LB:g=original	!	!	!
=36	=36	=36	=36	=36	=36	=36	=36
2G\	-i	2d\	-i	2g\	-i	2b\	-i
4r	.	4r	.	4r	.	4r	.
=37	=37	=37	=37	=37	=37	=37	=37
2G\	et	2d\	et	2b\	et	2gg\	et
4G\	an-	4d\	an-	4b\	an-	4gg\	an-
=38	=38	=38	=38	=38	=38	=38	=38
2A\	-ti-	2d\	-ti-	2cc\	-ti-	2ff#X\	-ti-
4A\	-quum	4d\	-quum	4cc\	-quum	4ff#\	-quum
!	!	!LO:LB:g=original	!	!	!	!	!
=39	=39	=39	=39	=39	=39	=39	=39
2B\	do-	2d\	do-	2g\	do-	2ffn\	do-
4B\	-cu-	4d\	-cu-	4g\	-cu-	4ff\	-cu-
=40	=40	=40	=40	=40	=40	=40	=40
2c\	-men-	2c\	-men-	2g\	-men-	2ee\	-men-
4c\	-tum	4c\	-tum	4g\	-tum	4ee\	-tum
=41	=41	=41	=41	=41	=41	=41	=41
4G\	no-	(8B\L	no-	4g\	no-	(8dd\L	no-
.	.	8d\J)	.	.	.	8b\J)	.
4G\	-vo	(8B\L	-vo	4g\	-vo	(8dd\L	-vo
.	.	8d\J)	.	.	.	8b\J)	.
4C/	ce-	(8c\L	ce-	4g\	ce-	(8ee\L	ce-
.	.	8e\J)	.	.	.	8cc\J)	.
!LO:LB:g=original	!	!	!	!	!	!LO:LB:g=original	!
=42	=42	=42	=42	=42	=42	=42	=42
(8BB/L	-dat	(8d\L	-dat	(8g\L	-dat	(8dd\L	-dat
8C/J)	.	8e\J)	.	8a\J)	.	8cc\J)	.
4D\	ri-	4d\	ri-	4g\	ri-	4b\	ri-
4D\	-tu-	4d\	-tu-	4f#X\	-tu-	4a\	-tu-
=43	=43	=43	=43	=43	=43	=43	=43
2GG\ 2G	-i	2d\	-i	2g\	-i	2b\	-i
4r	.	4r	.	4r	.	4r	.
!	!	!	!	!LO:LB:g=original	!	!	!
=44	=44	=44	=44	=44	=44	=44	=44
(4C\	pre-	[2G/	pre-	(4e\	pre-	(4cc\	pre-
8D\L	.	.	.	4.f\)	.	8b\L	.
8BB\J	.	.	.	.	.	8dd\J	.
8GG\)	.	8G/]	.	.	.	8ff\)	.
8BB/	-stet	8G/	-stet	8f\	-stet	8dd\	-stet
!	!	!LO:LB:g=original	!	!	!	!	!
=45	=45	=45	=45	=45	=45	=45	=45
4BB/	fi-	4G/	fi-	4f\	fi-	4dd\	fi-
4C/	-des	4G/	-des	4e\	-des	4cc\	-des
4r	.	4r	.	4r	.	4r	.
=46	=46	=46	=46	=46	=46	=46	=46
(4F\	su-	2c\	su-	(4f\	su-	(4a\	su-
4C/)	.	.	.	4e\)	.	4g\)	.
4BB/	-ple-	4G/	-ple-	4d\	-ple-	4f/	-ple-
!LO:LB:g=original	!	!	!	!	!	!	!
=47	=47	=47	=47	=47	=47	=47	=47
4BB/	-men-	4G/	-men-	4d\	-men-	4f/	-men-
4C/	-tum	4G/	-tum	4c\	-tum	4e/	-tum
4r	.	4r	.	4r	.	4r	.
!	!	!	!	!	!	!LO:LB:g=original	!
=48	=48	=48	=48	=48	=48	=48	=48
4.GG/	sen-	4.d\	sen-	4.f\	sen-	4.b\	sen-
8G\	-su-	8d\	-su-	8f\	-su-	8b\	-su-
4C/	-um	4c\	-um	4e\	-um	4cc\	-um
=49	=49	=49	=49	=49	=49	=49	=49
4.G\	sen-	4.B\	sen-	4.f\	sen-	4.dd\	sen-
8G#X\	-su-	8B\	-su-	8f\	-su-	8dd\	-su-
4A\	-um	4c\	-um	4e\	-um	4cc\	-um
=50	=50	=50	=50	=50	=50	=50	=50
(8D\L	de-	4d\	de-	4a\	de-	(8ff\L	de-
8F\J)	.	.	.	.	.	8dd\J)	.
4.G\	-fe-	(4e\	-fe-	4.g\	-fe-	(4cc\	-de-
.	.	8d\)	.	.	.	8b\)	.
8GG/	-ctu-	8d\	-ctu-	8f\	-ctu-	8b\	-ctu-
!	!	!LO:LB:g=original	!	!LO:LB:g=original	!	!	!
=51	=51	=51	=51	=51	=51	=51	=51
2C/	-i	2G/	-i	2e\	-i	2cc\	-i
4r	.	4r	.	4r	.	4r	.
=52	=52	=52	=52	=52	=52	=52	=52
4.GG/	sen-	4.d\	sen-	4.f\	sen-	4.b\	sen-
8G\	-su-	8d\	-su-	8f\	-su-	8b\	-su-
4C/	-um	4c\	-um	4e\	-um	4cc\	-um
!LO:LB:g=original	!	!	!	!	!	!	!
=53	=53	=53	=53	=53	=53	=53	=53
4.G\	sen-	4.B\	sen-	4.f\	sen-	4.dd\	sen-
8G#X\	-su-	8B\	-su-	8f\	-su-	8dd\	-su-
4A\	-um	4c\	-um	4e\	-um	4cc\	-um
!	!	!	!	!	!	!LO:LB:g=original	!
=54	=54	=54	=54	=54	=54	=54	=54
(8D\L	de-	4d\	de-	4a\	de-	(8ff\L	de-
8F\J)	.	.	.	.	.	8dd\J)	.
4.G\	-fe-	(4e\	-fe-	4.g\	-fe-	(4cc\	-fe-
.	.	8d\)	.	.	.	8b\)	.
8GG/	-ctu-	8d\	-ctu-	8f\	-ctu-	8b\	-ctu-
=55	=55	=55	=55	=55	=55	=55	=55
2C/	-i	2G/	-i	2e\	-i	2cc\	-i
4r	.	4r	.	4r	.	4r	.
==	==	==	==	==	==	==	==
*-	*-	*-	*-	*-	*-	*-	*-
!!!system-decoration: [(g1)]
!!!ENC: Anna Matuszewska
!!!END: 2021-01-02
!!!ENC: Andrzej Gręziak
!!!END: 2020-12-30
!!!YEC: Copyright 2022 Narodowy Instytut Fryderyka Chopina (https://polishscores.org)
!!!YEM: License CC-BY-4.0 (https://creativecommons.org/licenses/by/4.0)
